Sources/FrostedUI/Resources/Icons.xcassets/starHalf32.imageset/star-half-32.svg

<svg width="32" height="32" viewBox="0 0 32 32" fill="none" xmlns="http://www.w3.org/2000/svg" data-fui-icon="true">
  <path
    fill-rule="evenodd"
    clip-rule="evenodd"
    d="M29.1978 13.2719C29.6958 12.8019 29.8748 12.1059 29.6638 11.4549C29.4528 10.8019 28.8978 10.3409 28.2158 10.2519L20.9498 9.30095C20.8618 9.28895 20.7858 9.23495 20.7468 9.15495L17.5888 2.58095C17.2928 1.96595 16.6838 1.58295 15.9998 1.58295C15.3158 1.58295 14.7068 1.96495 14.4108 2.58095L11.2528 9.15395C11.2138 9.23395 11.1388 9.28795 11.0498 9.29995L3.78279 10.2509C3.10079 10.3399 2.54679 10.8009 2.33579 11.4539C2.12579 12.1049 2.30379 12.8009 2.80179 13.2709L8.11379 18.2789C8.17779 18.3399 8.20679 18.4259 8.19079 18.5119L6.85679 25.6679C6.73179 26.3379 6.99679 27.0049 7.54879 27.4079C8.10279 27.8139 8.82279 27.8619 9.42679 27.5359L15.8728 24.0609C15.9518 24.0189 16.0458 24.0189 16.1248 24.0609L22.5708 27.5359C22.8368 27.6789 23.1248 27.7499 23.4108 27.7499C23.7758 27.7499 24.1388 27.6349 24.4488 27.4089C25.0008 27.0059 25.2658 26.3389 25.1408 25.6679L23.8068 18.5119C23.7908 18.4269 23.8198 18.3399 23.8838 18.2799L29.1958 13.2709L29.1978 13.2719ZM22.3348 18.7889L23.6688 25.9439C23.6938 26.0819 23.6158 26.1619 23.5668 26.1979C23.5178 26.2349 23.4138 26.2879 23.2848 26.2169L16.8388 22.7419C16.5768 22.5999 16.2888 22.5299 16.0008 22.5299V3.08495C16.0628 3.08495 16.1758 3.10395 16.2378 3.23195L19.3958 9.80595C19.6548 10.3439 20.1628 10.7109 20.7558 10.7889L28.0218 11.7399C28.1658 11.7589 28.2188 11.8589 28.2368 11.9179C28.2558 11.9749 28.2708 12.0849 28.1688 12.1819L22.8568 17.1909C22.4198 17.6029 22.2248 18.1999 22.3348 18.7889Z"
    fill="currentColor"
  />
</svg>

<svg xmlns="http://www.w3.org/2000/svg" width="32" height="32" fill="none" data-fui-icon="true" viewBox="0 0 32 32"><path fill="currentColor" fill-rule="evenodd" d="M29.198 13.272a1.74 1.74 0 0 0 .466-1.817 1.75 1.75 0 0 0-1.448-1.203L20.95 9.3a.26.26 0 0 1-.203-.146L17.589 2.58a1.75 1.75 0 0 0-1.59-.998c-.683 0-1.292.382-1.588.998l-3.158 6.573a.26.26 0 0 1-.203.146l-7.267.95a1.74 1.74 0 0 0-1.447 1.204 1.74 1.74 0 0 0 .466 1.817l5.312 5.008a.26.26 0 0 1 .077.233l-1.334 7.156c-.125.67.14 1.337.692 1.74a1.75 1.75 0 0 0 1.878.128l6.446-3.475a.27.27 0 0 1 .252 0l6.446 3.475a1.76 1.76 0 0 0 1.878-.127c.552-.403.817-1.07.692-1.741l-1.334-7.156a.25.25 0 0 1 .077-.232l5.312-5.01zm-6.863 5.517 1.334 7.155a.25.25 0 0 1-.102.254.25.25 0 0 1-.282.019l-6.446-3.475A1.76 1.76 0 0 0 16 22.53V3.085c.062 0 .175.019.237.147l3.158 6.574c.259.538.767.905 1.36.983l7.266.95a.25.25 0 0 1 .215.179.24.24 0 0 1-.068.264l-5.312 5.009a1.75 1.75 0 0 0-.522 1.598" clip-rule="evenodd"/></svg>
